src/assets/proffesionalArt.svg

<svg width="41" height="40" viewBox="0 0 41 40" fill="none" xmlns="http://www.w3.org/2000/svg">
<mask id="mask0_1744_238" style="mask-type:alpha" maskUnits="userSpaceOnUse" x="0" y="0" width="41" height="40">
<rect x="0.600098" width="40" height="40" fill="#D9D9D9"/>
</mask>
<g mask="url(#mask0_1744_238)">
<path d="M7.26681 31.047C6.97014 31.047 6.72153 30.9461 6.52098 30.7441C6.32014 30.5425 6.21973 30.2926 6.21973 29.9945C6.21973 29.6962 6.32014 29.448 6.52098 29.25C6.72153 29.0519 6.97014 28.9529 7.26681 28.9529H23.9335C24.2301 28.9529 24.4788 29.0539 24.6793 29.2558C24.8801 29.4575 24.9806 29.7073 24.9806 30.0054C24.9806 30.3037 24.8801 30.5519 24.6793 30.75C24.4788 30.948 24.2301 31.047 23.9335 31.047H7.26681ZM30.6001 31.047C30.3035 31.047 30.0549 30.9461 29.8543 30.7441C29.6535 30.5425 29.5531 30.2926 29.5531 29.9945C29.5531 29.6962 29.6535 29.448 29.8543 29.25C30.0549 29.0519 30.3035 28.9529 30.6001 28.9529H33.9335C34.2301 28.9529 34.4788 29.0539 34.6793 29.2558C34.8801 29.4575 34.9806 29.7073 34.9806 30.0054C34.9806 30.3037 34.8801 30.5519 34.6793 30.75C34.4788 30.948 34.2301 31.047 33.9335 31.047H30.6001ZM7.26681 24.3804C6.97014 24.3804 6.72153 24.2794 6.52098 24.0775C6.32014 23.8758 6.21973 23.6259 6.21973 23.3279C6.21973 23.0295 6.32014 22.7814 6.52098 22.5833C6.72153 22.3852 6.97014 22.2862 7.26681 22.2862H10.6001C10.8968 22.2862 11.1454 22.3872 11.346 22.5891C11.5468 22.7908 11.6472 23.0407 11.6472 23.3387C11.6472 23.637 11.5468 23.8852 11.346 24.0833C11.1454 24.2814 10.8968 24.3804 10.6001 24.3804H7.26681ZM17.2668 24.3804C16.9701 24.3804 16.7215 24.2794 16.521 24.0775C16.3201 23.8758 16.2197 23.6259 16.2197 23.3279C16.2197 23.0295 16.3201 22.7814 16.521 22.5833C16.7215 22.3852 16.9701 22.2862 17.2668 22.2862H33.9335C34.2301 22.2862 34.4788 22.3872 34.6793 22.5891C34.8801 22.7908 34.9806 23.0407 34.9806 23.3387C34.9806 23.637 34.8801 23.8852 34.6793 24.0833C34.4788 24.2814 34.2301 24.3804 33.9335 24.3804H17.2668ZM7.26681 17.7137C6.97014 17.7137 6.72153 17.6127 6.52098 17.4108C6.32014 17.2091 6.21973 16.9593 6.21973 16.6612C6.21973 16.3629 6.32014 16.1147 6.52098 15.9166C6.72153 15.7186 6.97014 15.6195 7.26681 15.6195H25.6001C25.8968 15.6195 26.1454 15.7205 26.346 15.9225C26.5468 16.1241 26.6472 16.374 26.6472 16.672C26.6472 16.9704 26.5468 17.2186 26.346 17.4166C26.1454 17.6147 25.8968 17.7137 25.6001 17.7137H7.26681ZM32.2668 17.7137C31.9701 17.7137 31.7215 17.6127 31.521 17.4108C31.3201 17.2091 31.2197 16.9593 31.2197 16.6612C31.2197 16.3629 31.3201 16.1147 31.521 15.9166C31.7215 15.7186 31.9701 15.6195 32.2668 15.6195H33.9335C34.2301 15.6195 34.4788 15.7205 34.6793 15.9225C34.8801 16.1241 34.9806 16.374 34.9806 16.672C34.9806 16.9704 34.8801 17.2186 34.6793 17.4166C34.4788 17.6147 34.2301 17.7137 33.9335 17.7137H32.2668ZM7.26681 11.047C6.97014 11.047 6.72153 10.9461 6.52098 10.7441C6.32014 10.5425 6.21973 10.2926 6.21973 9.99455C6.21973 9.69621 6.32014 9.44802 6.52098 9.24996C6.72153 9.05191 6.97014 8.95288 7.26681 8.95288H15.6001C15.8968 8.95288 16.1454 9.05385 16.346 9.2558C16.5468 9.45747 16.6472 9.70733 16.6472 10.0054C16.6472 10.3037 16.5468 10.5519 16.346 10.75C16.1454 10.948 15.8968 11.047 15.6001 11.047H7.26681ZM22.2668 11.047C21.9701 11.047 21.7215 10.9461 21.521 10.7441C21.3201 10.5425 21.2197 10.2926 21.2197 9.99455C21.2197 9.69621 21.3201 9.44802 21.521 9.24996C21.7215 9.05191 21.9701 8.95288 22.2668 8.95288H33.9335C34.2301 8.95288 34.4788 9.05385 34.6793 9.2558C34.8801 9.45747 34.9806 9.70733 34.9806 10.0054C34.9806 10.3037 34.8801 10.5519 34.6793 10.75C34.4788 10.948 34.2301 11.047 33.9335 11.047H22.2668Z" fill="white"/>
</g>
</svg>

<svg width="41" height="40" viewBox="0 0 41 40" fill="none" xmlns="http://www.w3.org/2000/svg"><mask id="mask0_1744_238" style="mask-type:alpha" maskUnits="userSpaceOnUse" x="0" y="0" width="41" height="40"><path fill="#d9d9d9" d="M.6 0h40v40H.6z"/></mask><g mask="url(#mask0_1744_238)"><path d="M7.267 31.047q-.445 0-.746-.303a1.02 1.02 0 0 1-.301-.75q0-.447.301-.744t.746-.297h16.667q.445 0 .745.303.302.302.302.75 0 .447-.302.744-.3.297-.745.297zm23.333 0q-.445 0-.746-.303a1.02 1.02 0 0 1-.3-.75q0-.447.3-.744.301-.297.746-.297h3.334q.444 0 .745.303.302.302.302.75 0 .447-.302.744-.3.297-.745.297zM7.267 24.38a1 1 0 0 1-.746-.302 1.02 1.02 0 0 1-.301-.75q0-.448.301-.745t.746-.297H10.6q.445 0 .746.303.3.303.301.75 0 .447-.301.744t-.746.297zm10 0a1 1 0 0 1-.746-.302 1.02 1.02 0 0 1-.301-.75q0-.448.301-.745t.746-.297h16.667q.444 0 .745.303.302.303.302.75t-.302.744q-.3.297-.745.297zm-10-6.666a1 1 0 0 1-.746-.303 1.02 1.02 0 0 1-.301-.75q0-.447.301-.744t.746-.297H25.6q.445 0 .746.303.3.302.301.749 0 .448-.301.745t-.746.297zm25 0a1 1 0 0 1-.746-.303 1.02 1.02 0 0 1-.301-.75q0-.447.301-.744t.746-.297h1.666q.446 0 .746.303.302.302.302.749 0 .448-.302.745-.3.297-.745.297zm-25-6.667q-.445 0-.746-.303a1.02 1.02 0 0 1-.301-.75q0-.447.301-.744t.746-.297H15.6q.445 0 .746.303.3.302.301.75 0 .447-.301.744t-.746.297zm15 0q-.446 0-.746-.303a1.02 1.02 0 0 1-.301-.75q0-.447.301-.744t.746-.297h11.667q.444 0 .745.303.302.302.302.75 0 .447-.302.744-.3.297-.745.297z" fill="#fff"/></g></svg>
